X:1454
L:1/8
Q:1/4=100
M:4/4
K:Ab
 EFE |"Ab" A4- Ac BA |"Db" F4- FA GF |"Ab/Eb" E4-"Eb" EF"Eb7" ED |"Ab" C4- C EFE | A4- Ac BA | 
"Db" F4- FA GF |"Ab/Eb" E4"Eb7" B4 |"Ab" A4 z |]

